svg/align-justify.svg

<svg xmlns="http://www.w3.org/2000/svg" width="24" height="24" viewBox="0 0 24 24">
	<g fill="none" stroke="currentColor" stroke-width="2" stroke-linecap="round" stroke-linejoin="round">
		<path d="M12 5h6M12 5h-6" stroke-dasharray="8" stroke-dashoffset="8">
			<animate attributeName="stroke-dashoffset" values="8;0" dur="0.2s" fill="freeze" />
		</path>
		<path d="M12 10h6M12 10h-6" stroke-dasharray="8" stroke-dashoffset="8">
			<animate attributeName="stroke-dashoffset" values="8;0" begin="0.2s" dur="0.2s" fill="freeze" />
		</path>
		<path d="M12 15h6M12 15h-6" stroke-dasharray="8" stroke-dashoffset="8">
			<animate attributeName="stroke-dashoffset" values="8;0" begin="0.4s" dur="0.2s" fill="freeze" />
		</path>
		<path d="M12 20h6M12 20h-6" stroke-dasharray="8" stroke-dashoffset="8">
			<animate attributeName="stroke-dashoffset" values="8;0" begin="0.6s" dur="0.2s" fill="freeze" />
		</path>
	</g>
</svg>

<svg xmlns="http://www.w3.org/2000/svg" width="24" height="24" viewBox="0 0 24 24">
	<g fill="none" stroke="currentColor" stroke-width="2" stroke-linecap="round" stroke-dasharray="8">
		<path d="M12 5H18M12 5H6" stroke-dashoffset="8">
			<animate attributeName="stroke-dashoffset" values="8;0" dur="0.2s" fill="freeze" />
		</path>
		<path d="M12 10H18M12 10H6" stroke-dashoffset="8">
			<animate attributeName="stroke-dashoffset" values="8;0" begin="0.2s" dur="0.2s" fill="freeze" />
		</path>
		<path d="M12 15H18M12 15H6" stroke-dashoffset="8">
			<animate attributeName="stroke-dashoffset" values="8;0" begin="0.4s" dur="0.2s" fill="freeze" />
		</path>
		<path d="M12 20H18M12 20H6" stroke-dashoffset="8">
			<animate attributeName="stroke-dashoffset" values="8;0" begin="0.6s" dur="0.2s" fill="freeze" />
		</path>
	</g>
</svg>
